; generated by PrusaSlicer 2.6.1+win64 on 2024-05-29 at 12:11:24 UTC


;
;
; 

; external perimeters extrusion width = 0.45mm
; perimeters extrusion width = 0.45mm
; infill extrusion width = 0.45mm
; solid infill extrusion width = 0.45mm
; top infill extrusion width = 0.40mm
; first layer extrusion width = 0.42mm

M73 P0 R55
M73 Q0 S55
M201 X1000 Y1000 Z200 E5000 ; sets maximum accelerations, mm/sec^2
M203 X200 Y200 Z12 E120 ; sets maximum feedrates, mm / sec
M204 S1250 T1250 ; sets acceleration (S) and retract acceleration (R), mm/sec^2
M205 X8.00 Y8.00 Z0.40 E4.50 ; sets the jerk limits, mm/sec
M205 S0 T0 ; sets the minimum extruding and travel feed rate, mm/sec
;TYPE:Custom
M862.3 P "MK3S" ; printer model check
M862.1 P0.4 ; nozzle diameter check
M115 U3.13.2 ; tell printer latest fw version
G90 ; use absolute coordinates
M83 ; extruder relative mode
M104 S215 ; set extruder temp
M140 S60 ; set bed temp
M190 S60 ; wait for bed temp
M109 S215 ; wait for extruder temp
G28 W ; home all without mesh bed level
G80 ; mesh bed leveling

G1 Z0.2 F720
G1 Y-3 F1000 ; go outside print area
G92 E0
G1 X60 E9 F1000 ; intro line
G1 X100 E12.5 F1000 ; intro line

G92 E0
M221 S95

; Don't change E values below. Excessive value can damage the printer.
M907 E430 ; set extruder motor current
G21 ; set units to millimeters
G90 ; use absolute coordinates
M83 ; use relative distances for extrusion
M900 K0.05 ; Filament gcode LA 1.5
M900 K30 ; Filament gcode LA 1.0

M107
;LAYER_CHANGE
;Z:0.2
;HEIGHT:0.2
;BEFORE_LAYER_CHANGE
G92 E0.0
;0.2


G1 E-.8 F2100
M73 P0 R54
G1 Z.4 F720
;AFTER_LAYER_CHANGE
;0.2
G1 X84.544 Y93.949 F10800
G1 Z.2 F720
G1 E.8 F2100
M204 S800
;TYPE:Skirt/Brim
;WIDTH:0.42
G1 F1200
G1 X85.162 Y93.522 E.02355
G1 X85.851 Y93.179 E.02413
G1 X86.563 Y92.942 E.02353
G1 X87.888 Y92.773 E.04188
G1 X162.11 Y92.773 E2.32718
G1 X163.116 Y92.87 E.03169
G1 X164.103 Y93.16 E.03225
G1 X164.998 Y93.62 E.03155
G1 X165.793 Y94.242 E.03165
G1 X166.456 Y94.998 E.03153
G1 X166.977 Y95.885 E.03225
G1 X167.315 Y96.838 E.0317
G1 X167.469 Y97.857 E.03231
G1 X167.477 Y111.888 E.43993
G1 X167.362 Y112.957 E.03371
G1 X167.157 Y113.678 E.0235
G1 X166.853 Y114.365 E.02356
G1 X166.472 Y114.981 E.02271
G1 X165.993 Y115.559 E.02354
G1 X165.439 Y116.065 E.02353
G1 X164.82 Y116.488 E.02351
G1 X164.148 Y116.822 E.02353
G1 X163.436 Y117.058 E.02352
G1 X162.11 Y117.227 E.04191
G1 X87.63 Y117.22 E2.33527
G1 X86.792 Y117.112 E.02649
G1 X85.963 Y116.866 E.02711
G1 X85.202 Y116.501 E.02646
G1 X84.508 Y116.022 E.02644
G1 X83.881 Y115.422 E.02721
G1 X83.371 Y114.749 E.02648
G1 X82.973 Y114.004 E.02648
G1 X82.692 Y113.188 E.02706
G1 X82.523 Y111.862 E.04191
G1 X82.523 Y98.114 E.43106
G1 X82.62 Y97.134 E.03088
G1 X82.819 Y96.39 E.02415
G1 X83.113 Y95.7 E.02352
G1 X83.501 Y95.058 E.02352
G1 X83.991 Y94.457 E.02431
G1 X84.5 Y93.989 E.02168
M204 S1000
; printing object 7cm Vise Pad.STL id:0 copy 0
;WIPE_START
G1 F8640
G1 X85.162 Y93.522 E-.18706
G1 X85.851 Y93.179 E-.17772
G1 X86.563 Y92.942 E-.17327
G1 X87.688 Y92.798 E-.26195
;WIPE_END
G1 Z.6 F720
G1 X86.863 Y113.353 F10800
G1 Z.2 F720
G1 E.8 F2100
M204 S800
;TYPE:Perimeter
;WIDTH:0.419999
G1 F1200
G1 X86.517 Y113.052 E.01438
G1 X86.283 Y112.7 E.01325
G1 X86.152 Y112.32 E.0126
G1 X86.064 Y111.822 E.01586
G1 X86.064 Y98.272 E.42485
G1 X86.079 Y97.933 E.01064
G1 X86.233 Y97.388 E.01776
G1 X86.538 Y96.924 E.01741
G1 X86.985 Y96.562 E.01803
G1 X87.431 Y96.401 E.01487
G1 X87.926 Y96.314 E.01576
G1 X161.972 Y96.314 E2.32166
G1 X162.465 Y96.355 E.01551
G1 X162.956 Y96.54 E.01645
G1 X163.384 Y96.844 E.01646
G1 X163.694 Y97.266 E.01642
G1 X163.888 Y97.754 E.01647
G1 X163.935 Y98.253 E.01572
G1 X163.936 Y111.734 E.42269
G1 X163.918 Y112.085 E.01102
G1 X163.76 Y112.626 E.01767
G1 X163.45 Y113.09 E.0175
G1 X163.016 Y113.437 E.01742
G1 X162.58 Y113.598 E.01457
G1 X162.074 Y113.686 E.0161
G1 X88.017 Y113.685 E2.322
G1 X87.776 Y113.674 E.00756
G1 X87.258 Y113.566 E.01659
G1 X86.916 Y113.382 E.01218
M204 S1000
G1 X86.614 Y113.63 F10800
M204 S800
G1 F1200
G1 X86.494 Y113.556 E.00442
G1 X86.105 Y113.128 E.01813
G1 X85.857 Y112.692 E.01573
G1 X85.767 Y112.338 E.01145
G1 X85.687 Y111.833 E.01603
G1 X85.687 Y98.238 E.42626
G1 X85.736 Y97.724 E.01619
G1 X85.888 Y97.232 E.01615
G1 X86.156 Y96.802 E.01589
G1 X86.508 Y96.432 E.01601
G1 X87.074 Y96.1 E.02057
G1 X87.434 Y96.012 E.01162
G1 X87.916 Y95.937 E.01529
G1 X161.972 Y95.937 E2.32197
G1 X162.541 Y95.984 E.0179
M73 Q0 S54
G1 X162.946 Y96.108 E.01328
G1 X163.32 Y96.307 E.01328
G1 X163.649 Y96.573 E.01327
G1 X163.921 Y96.898 E.01329
G1 X164.127 Y97.269 E.01331
G1 X164.258 Y97.671 E.01326
G1 X164.312 Y98.253 E.01833
G1 X164.313 Y111.755 E.42335
G1 X164.26 Y112.295 E.01701
M73 P1 R54
M73 Q1 S54
G1 X164.104 Y112.786 E.01615
G1 X163.842 Y113.201 E.01539
G1 X163.493 Y113.568 E.01588
G1 X163.077 Y113.826 E.01535
G1 X162.623 Y113.976 E.01499
G1 X162.084 Y114.063 E.01712
G1 X87.984 Y114.062 E2.32335
G1 X87.478 Y114.02 E.01592
G1 X86.956 Y113.841 E.0173
G1 X86.665 Y113.662 E.01071
M204 S1000
G1 X86.433 Y113.958 F10800
M204 S800
;TYPE:External perimeter
G1 F1200
G1 X86.104 Y113.703 E.01305
G1 X85.801 Y113.351 E.01456
G1 X85.502 Y112.825 E.01897
G1 X85.382 Y112.355 E.01521
G1 X85.31 Y111.844 E.01618
G1 X85.319 Y98.011 E.43372
G1 X85.405 Y97.459 E.01752
G1 X85.636 Y96.908 E.01873
G1 X85.976 Y96.417 E.01873
G1 X86.474 Y95.998 E.02041
G1 X86.946 Y95.743 E.01682
G1 X87.432 Y95.624 E.01569
G1 X87.906 Y95.56 E.015
G1 X162.114 Y95.56 E2.32674
G1 X162.616 Y95.613 E.01583
G1 X163.091 Y95.758 E.01557
G1 X163.529 Y95.991 E.01556
G1 X163.915 Y96.303 E.01556
G1 X164.234 Y96.683 E.01556
G1 X164.474 Y97.118 E.01558
G1 X164.628 Y97.589 E.01554
G1 X164.689 Y98.253 E.02091
G1 X164.679 Y112.007 E.43125
G1 X164.589 Y112.563 E.01766
G1 X164.353 Y113.112 E.01874
G1 X164.009 Y113.6 E.01872
G1 X163.536 Y113.995 E.01932
G1 X163.033 Y114.265 E.0179
G1 X162.616 Y114.365 E.01345
G1 X162.094 Y114.44 E.01653
G1 X88.017 Y114.439 E2.32263
G1 X87.694 Y114.423 E.01014
G1 X87.197 Y114.333 E.01584
G1 X86.606 Y114.093 E.02
G1 X86.48 Y113.995 E.005
M204 S1000
G1 X86.46 Y113.559 F10800
;WIPE_START
G1 F8640
G1 X86.104 Y113.703 E-.10993
G1 X85.801 Y113.351 E-.10724
G1 X85.502 Y112.825 E-.13971
G1 X85.382 Y112.355 E-.11201
G1 X85.31 Y111.844 E-.11916
G1 X85.311 Y110.926 E-.21195
;WIPE_END
G1 Z.6 F720
G1 X163.765 Y98.243 F10800
G1 Z.2 F720
G1 E.8 F2100
M204 S800
;TYPE:Solid infill
;WIDTH:0.421599
G1 F1200
G1 X162.19 Y96.668 E.07013
G1 X161.64 Y96.654 E.01732
G1 X163.596 Y98.609 E.08708
G1 X163.596 Y99.144 E.01685
G1 X161.105 Y96.654 E.1109
G1 X160.569 Y96.654 E.01688
G1 X163.596 Y99.68 E.13477
G1 X163.596 Y100.215 E.01685
G1 X160.034 Y96.654 E.15859
G1 X159.498 Y96.654 E.01688
G1 X163.596 Y100.751 E.18246
G1 X163.596 Y101.287 E.01688
G1 X158.963 Y96.654 E.20631
G1 X158.427 Y96.654 E.01688
G1 X163.596 Y101.822 E.23015
G1 X163.596 Y102.358 E.01688
G1 X157.892 Y96.654 E.254
G1 X157.356 Y96.654 E.01688
G1 X163.596 Y102.893 E.27784
G1 X163.596 Y103.429 E.01688
G1 X156.821 Y96.654 E.30169
G1 X156.285 Y96.654 E.01688
G1 X163.596 Y103.964 E.32553
G1 X163.596 Y104.5 E.01688
G1 X155.75 Y96.654 E.34938
G1 X155.214 Y96.654 E.01688
G1 X163.596 Y105.036 E.37325
G1 X163.596 Y105.571 E.01685
G1 X154.678 Y96.654 E.39709
G1 X154.143 Y96.654 E.01685
G1 X163.596 Y106.107 E.42094
G1 X163.596 Y106.642 E.01685
G1 X153.607 Y96.654 E.44479
G1 X153.072 Y96.654 E.01685
G1 X163.596 Y107.178 E.46863
G1 X163.596 Y107.713 E.01685
G1 X152.536 Y96.654 E.49248
G1 X152.001 Y96.654 E.01685
G1 X163.596 Y108.249 E.51632
G1 X163.596 Y108.785 E.01688
G1 X151.465 Y96.654 E.54019
G1 X150.93 Y96.654 E.01685
G1 X163.596 Y109.32 E.56401
G1 X163.596 Y109.856 E.01688
G1 X150.394 Y96.654 E.58788
G1 X149.859 Y96.654 E.01685
G1 X163.596 Y110.391 E.61171
G1 X163.596 Y110.927 E.01688
G1 X149.323 Y96.654 E.63557
G1 X148.788 Y96.654 E.01685
G1 X163.596 Y111.462 E.6594
G1 X163.585 Y111.986 E.0165
G1 X148.252 Y96.654 E.68275
G1 X147.717 Y96.654 E.01685
M73 P1 R53
G1 X163.477 Y112.414 E.70179
G1 X163.346 Y112.671 E.00908
G1 X163.282 Y112.754 E.0033
G1 X147.181 Y96.654 E.71695
G1 X146.645 Y96.654 E.01688
M73 P2 R53
M73 Q2 S54
G1 X163.017 Y113.025 E.72902
G1 X162.846 Y113.142 E.00652
G1 X162.679 Y113.222 E.00583
G1 X146.11 Y96.654 E.73779
G1 X145.574 Y96.654 E.01688
G1 X162.249 Y113.329 E.74253
G1 X161.732 Y113.346 E.01629
G1 X145.039 Y96.654 E.74331
G1 X144.503 Y96.654 E.01688
G1 X161.196 Y113.346 E.74331
G1 X160.661 Y113.346 E.01685
G1 X143.968 Y96.654 E.74331
G1 X143.432 Y96.654 E.01688
G1 X160.125 Y113.346 E.74331
G1 X159.59 Y113.346 E.01685
G1 X142.897 Y96.654 E.74331
G1 X142.361 Y96.654 E.01688
G1 X159.054 Y113.346 E.74331
G1 X158.518 Y113.346 E.01688
G1 X141.826 Y96.654 E.74329
G1 X141.29 Y96.654 E.01688
G1 X157.983 Y113.346 E.74331
G1 X157.447 Y113.346 E.01688
G1 X140.755 Y96.654 E.74329
G1 X140.219 Y96.654 E.01688
G1 X156.912 Y113.346 E.74331
G1 X156.376 Y113.346 E.01688
G1 X139.684 Y96.654 E.74329
G1 X139.148 Y96.654 E.01688
G1 X155.841 Y113.346 E.74331
G1 X155.305 Y113.346 E.01688
G1 X138.612 Y96.654 E.74331
G1 X138.077 Y96.654 E.01685
G1 X154.77 Y113.346 E.74331
G1 X154.234 Y113.346 E.01688
G1 X137.541 Y96.654 E.74331
G1 X137.006 Y96.654 E.01685
G1 X153.699 Y113.346 E.74331
G1 X153.163 Y113.346 E.01688
G1 X136.47 Y96.654 E.74331
G1 X135.935 Y96.654 E.01685
G1 X152.628 Y113.346 E.74331
G1 X152.092 Y113.346 E.01688
M73 Q2 S53
G1 X135.399 Y96.654 E.74331
G1 X134.864 Y96.654 E.01685
G1 X151.556 Y113.346 E.74329
G1 X151.021 Y113.346 E.01685
G1 X134.328 Y96.654 E.74331
G1 X133.793 Y96.654 E.01685
G1 X150.485 Y113.346 E.74329
G1 X149.95 Y113.346 E.01685
G1 X133.257 Y96.654 E.74331
G1 X132.722 Y96.654 E.01685
G1 X149.414 Y113.346 E.74329
G1 X148.879 Y113.346 E.01685
M73 P3 R53
M73 Q3 S53
G1 X132.186 Y96.654 E.74331
G1 X131.651 Y96.654 E.01685
G1 X148.343 Y113.346 E.74329
G1 X147.808 Y113.346 E.01685
G1 X131.115 Y96.654 E.74331
G1 X130.579 Y96.654 E.01688
G1 X147.272 Y113.346 E.74331
G1 X146.737 Y113.346 E.01685
G1 X130.044 Y96.654 E.74331
G1 X129.508 Y96.654 E.01688
G1 X146.201 Y113.346 E.74331
G1 X145.666 Y113.346 E.01685
G1 X128.973 Y96.654 E.74331
G1 X128.437 Y96.654 E.01688
G1 X145.13 Y113.346 E.74331
G1 X144.594 Y113.346 E.01688
G1 X127.902 Y96.654 E.74329
G1 X127.366 Y96.654 E.01688
G1 X144.059 Y113.346 E.74331
G1 X143.523 Y113.346 E.01688
G1 X126.831 Y96.654 E.74329
G1 X126.295 Y96.654 E.01688
G1 X142.988 Y113.346 E.74331
G1 X142.452 Y113.346 E.01688
G1 X125.76 Y96.654 E.74329
G1 X125.224 Y96.654 E.01688
G1 X141.917 Y113.346 E.74331
G1 X141.381 Y113.346 E.01688
G1 X124.689 Y96.654 E.74329
G1 X124.153 Y96.654 E.01688
G1 X140.846 Y113.346 E.74331
G1 X140.31 Y113.346 E.01688
G1 X123.618 Y96.654 E.74329
G1 X123.082 Y96.654 E.01688
G1 X139.775 Y113.346 E.74331
G1 X139.239 Y113.346 E.01688
G1 X122.546 Y96.654 E.74331
G1 X122.011 Y96.654 E.01685
G1 X138.704 Y113.346 E.74331
G1 X138.168 Y113.346 E.01688
M73 P3 R52
G1 X121.475 Y96.654 E.74331
G1 X120.94 Y96.654 E.01685
G1 X137.632 Y113.346 E.74329
G1 X137.097 Y113.346 E.01685
G1 X120.404 Y96.654 E.74331
G1 X119.869 Y96.654 E.01685
G1 X136.561 Y113.346 E.74329
G1 X136.026 Y113.346 E.01685
G1 X119.333 Y96.654 E.74331
G1 X118.798 Y96.654 E.01685
G1 X135.49 Y113.346 E.74329
G1 X134.955 Y113.346 E.01685
G1 X118.262 Y96.654 E.74331
G1 X117.727 Y96.654 E.01685
M73 P4 R52
M73 Q4 S53
G1 X134.419 Y113.346 E.74329
G1 X133.884 Y113.346 E.01685
G1 X117.191 Y96.654 E.74331
G1 X116.656 Y96.654 E.01685
G1 X133.348 Y113.346 E.74329
G1 X132.813 Y113.346 E.01685
G1 X116.12 Y96.654 E.74331
G1 X115.585 Y96.654 E.01685
G1 X132.277 Y113.346 E.74329
G1 X131.741 Y113.346 E.01688
G1 X115.049 Y96.654 E.74329
G1 X114.513 Y96.654 E.01688
G1 X131.206 Y113.346 E.74331
G1 X130.67 Y113.346 E.01688
G1 X113.978 Y96.654 E.74329
G1 X113.442 Y96.654 E.01688
G1 X130.135 Y113.346 E.74331
G1 X129.599 Y113.346 E.01688
G1 X112.907 Y96.654 E.74329
G1 X112.371 Y96.654 E.01688
G1 X129.064 Y113.346 E.74331
G1 X128.528 Y113.346 E.01688
G1 X111.836 Y96.654 E.74329
G1 X111.3 Y96.654 E.01688
G1 X127.993 Y113.346 E.74331
G1 X127.457 Y113.346 E.01688
G1 X110.765 Y96.654 E.74329
G1 X110.229 Y96.654 E.01688
G1 X126.922 Y113.346 E.74331
G1 X126.386 Y113.346 E.01688
G1 X109.694 Y96.654 E.74329
G1 X109.158 Y96.654 E.01688
M73 Q4 S52
G1 X125.851 Y113.346 E.74331
G1 X125.315 Y113.346 E.01688
G1 X108.623 Y96.654 E.74329
G1 X108.087 Y96.654 E.01688
G1 X124.779 Y113.346 E.74329
G1 X124.244 Y113.346 E.01685
G1 X107.552 Y96.654 E.74329
G1 X107.016 Y96.654 E.01688
G1 X123.708 Y113.346 E.74329
G1 X123.173 Y113.346 E.01685
G1 X106.48 Y96.654 E.74331
G1 X105.945 Y96.654 E.01685
G1 X122.637 Y113.346 E.74329
G1 X122.102 Y113.346 E.01685
G1 X105.409 Y96.654 E.74331
G1 X104.874 Y96.654 E.01685
G1 X121.566 Y113.346 E.74329
G1 X121.031 Y113.346 E.01685
G1 X104.338 Y96.654 E.74331
G1 X103.803 Y96.654 E.01685
G1 X120.495 Y113.346 E.74329
G1 X119.96 Y113.346 E.01685
M73 P5 R52
G1 X103.267 Y96.654 E.74331
G1 X102.732 Y96.654 E.01685
M73 Q5 S52
G1 X119.424 Y113.346 E.74329
G1 X118.889 Y113.346 E.01685
G1 X102.196 Y96.654 E.74331
G1 X101.661 Y96.654 E.01685
G1 X118.353 Y113.346 E.74329
G1 X117.817 Y113.346 E.01688
G1 X101.125 Y96.654 E.74329
G1 X100.59 Y96.654 E.01685
G1 X117.282 Y113.346 E.74329
G1 X116.746 Y113.346 E.01688
G1 X100.054 Y96.654 E.74329
G1 X99.518 Y96.654 E.01688
G1 X116.211 Y113.346 E.74331
G1 X115.675 Y113.346 E.01688
G1 X98.983 Y96.654 E.74329
G1 X98.447 Y96.654 E.01688
G1 X115.14 Y113.346 E.74331
G1 X114.604 Y113.346 E.01688
G1 X97.912 Y96.654 E.74329
G1 X97.376 Y96.654 E.01688
G1 X114.069 Y113.346 E.74331
G1 X113.533 Y113.346 E.01688
G1 X96.841 Y96.654 E.74329
G1 X96.305 Y96.654 E.01688
G1 X112.998 Y113.346 E.74331
G1 X112.462 Y113.346 E.01688
G1 X95.77 Y96.654 E.74329
G1 X95.234 Y96.654 E.01688
M73 P5 R51
G1 X111.927 Y113.346 E.74331
G1 X111.391 Y113.346 E.01688
G1 X94.699 Y96.654 E.74329
G1 X94.164 Y96.654 E.01685
G1 X110.855 Y113.346 E.74327
G1 X110.32 Y113.346 E.01685
G1 X93.629 Y96.655 E.74325
G1 X93.094 Y96.655 E.01685
G1 X109.784 Y113.346 E.74322
G1 X109.249 Y113.346 E.01685
G1 X92.559 Y96.656 E.7432
G1 X92.024 Y96.657 E.01685
G1 X108.713 Y113.346 E.74316
G1 X108.178 Y113.346 E.01685
G1 X91.489 Y96.657 E.74316
G1 X90.954 Y96.658 E.01685
G1 X107.642 Y113.346 E.74311
G1 X107.107 Y113.346 E.01685
G1 X90.419 Y96.659 E.74309
G1 X89.885 Y96.659 E.01681
G1 X106.571 Y113.346 E.74305
G1 X106.036 Y113.346 E.01685
G1 X89.35 Y96.66 E.74302
G1 X88.815 Y96.66 E.01685
M73 P6 R51
G1 X105.5 Y113.346 E.743
G1 X104.964 Y113.346 E.01688
M73 Q6 S52
G1 X88.28 Y96.661 E.74296
G1 X87.793 Y96.662 E.01533
G1 X87.754 Y96.671 E.00126
G1 X104.429 Y113.346 E.74253
G1 X103.893 Y113.346 E.01688
G1 X87.324 Y96.776 E.73784
G1 X87.156 Y96.856 E.00586
G1 X86.985 Y96.973 E.00652
G1 X103.358 Y113.346 E.72909
G1 X102.822 Y113.346 E.01688
G1 X86.72 Y97.244 E.71702
G1 X86.647 Y97.34 E.0038
G1 X86.523 Y97.582 E.00856
G1 X102.287 Y113.346 E.70197
G1 X101.751 Y113.346 E.01688
G1 X86.415 Y98.009 E.68293
G1 X86.404 Y98.534 E.01653
G1 X101.216 Y113.346 E.65957
G1 X100.68 Y113.346 E.01688
G1 X86.404 Y99.07 E.63571
G1 X86.405 Y99.606 E.01688
G1 X100.145 Y113.346 E.61184
G1 X99.609 Y113.346 E.01688
G1 X86.405 Y100.142 E.58797
G1 X86.405 Y100.677 E.01685
M73 Q6 S51
G1 X99.074 Y113.346 E.56415
G1 X98.538 Y113.346 E.01688
G1 X86.406 Y101.213 E.54026
G1 X86.406 Y101.749 E.01688
G1 X98.002 Y113.346 E.51639
G1 X97.467 Y113.346 E.01685
G1 X86.406 Y102.285 E.49254
G1 X86.407 Y102.821 E.01688
G1 X96.931 Y113.346 E.46865
G1 X96.396 Y113.346 E.01685
G1 X86.407 Y103.357 E.44481
G1 X86.408 Y103.893 E.01688
G1 X95.86 Y113.346 E.42092
G1 X95.325 Y113.346 E.01685
G1 X86.408 Y104.429 E.39707
G1 X86.408 Y104.965 E.01688
G1 X94.789 Y113.346 E.3732
G1 X94.254 Y113.346 E.01685
G1 X86.409 Y105.501 E.34934
G1 X86.409 Y106.037 E.01688
G1 X93.718 Y113.346 E.32547
G1 X93.183 Y113.346 E.01685
G1 X86.41 Y106.573 E.3016
G1 X86.41 Y107.108 E.01685
G1 X92.647 Y113.346 E.27775
G1 X92.112 Y113.346 E.01685
G1 X86.41 Y107.644 E.25391
G1 X86.411 Y108.18 E.01688
G1 X91.576 Y113.346 E.23002
G1 X91.04 Y113.346 E.01688
G1 X86.411 Y108.716 E.20615
